X: 29429
T: Nighean Na Cailliche
R: jig
M: 6/8
K: Amixolydian
|:cBA ~A3|cee ~f2e|faa ~f2e|fBB BAB|
cBA ~A3|cee ~f2e|faa ~f2e|1 faa ~a3:|2 faa ace||
|:~f3 fec|efg ~a3|faf fec|
[1 fBB Bce|~f3 fec|efg ~a3|faf ecB|cAA Ace:|
[2 fBB BAB|cBA ~A3|cee ~f2e|faa ~f2e|faa a3||

